DSView/icons/light/display.svg

<?xml version="1.0" encoding="UTF-8" standalone="no"?>
<!-- 由 Microsoft Visio, SVG Export 生成 display.svg 页-1 -->

<svg
   xmlns:v="http://schemas.microsoft.com/visio/2003/SVGExtensions/"
   xmlns:dc="http://purl.org/dc/elements/1.1/"
   xmlns:cc="http://creativecommons.org/ns#"
   xmlns:rdf="http://www.w3.org/1999/02/22-rdf-syntax-ns#"
   xmlns:svg="http://www.w3.org/2000/svg"
   xmlns="http://www.w3.org/2000/svg"
   xmlns:sodipodi="http://sodipodi.sourceforge.net/DTD/sodipodi-0.dtd"
   xmlns:inkscape="http://www.inkscape.org/namespaces/inkscape"
   width="512"
   height="512"
   viewBox="0 0 384.00023 383.99965"
   xml:space="preserve"
   class="st2"
   version="1.1"
   id="svg16"
   sodipodi:docname="display.svg"
   style="font-size:12px;overflow:visible;color-interpolation-filters:sRGB;fill:none;fill-rule:evenodd;stroke-linecap:square;stroke-miterlimit:3"
   inkscape:version="0.92.4 (5da689c313, 2019-01-14)"><metadata
   id="metadata22"><rdf:RDF><cc:Work
       rdf:about=""><dc:format>image/svg+xml</dc:format><dc:type
         rdf:resource="http://purl.org/dc/dcmitype/StillImage" /><dc:title></dc:title></cc:Work></rdf:RDF></metadata><defs
   id="defs20" /><sodipodi:namedview
   pagecolor="#ffffff"
   bordercolor="#666666"
   borderopacity="1"
   objecttolerance="10"
   gridtolerance="10"
   guidetolerance="10"
   inkscape:pageopacity="0"
   inkscape:pageshadow="2"
   inkscape:window-width="793"
   inkscape:window-height="480"
   id="namedview18"
   showgrid="false"
   units="px"
   inkscape:zoom="0.66210977"
   inkscape:cx="255.99985"
   inkscape:cy="177.32016"
   inkscape:window-x="0"
   inkscape:window-y="0"
   inkscape:window-maximized="0"
   inkscape:current-layer="svg16" />
	<v:documentProperties
   v:langID="2052"
   v:viewMarkup="false" />

	<style
   type="text/css"
   id="style2">
	<![CDATA[
		.st1 {fill:#2a2a2a;stroke:none;stroke-linecap:butt;stroke-width:0.612}
		.st2 {fill:none;fill-rule:evenodd;font-size:12px;overflow:visible;stroke-linecap:square;stroke-miterlimit:3}
	]]>
	</style>

	<g
   v:mID="0"
   v:index="1"
   v:groupContext="foregroundPage"
   id="g14"
   transform="translate(0.216115,59.021925)">
		<title
   id="title4">页-1</title>
		<v:pageProperties
   v:drawingScale="0.0393701"
   v:pageScale="0.0393701"
   v:drawingUnits="24"
   v:shadowOffsetX="9"
   v:shadowOffsetY="-9" />
		<g
   id="group283-1"
   v:mID="283"
   v:groupContext="group">
			<title
   id="title6">工作表.283</title>
			<g
   id="shape488-2"
   v:mID="488"
   v:groupContext="shape"
   transform="translate(57.424,-14.7521)">
				<title
   id="title8">工作表.488</title>
				<path
   d="M 252.59,29.48 H 16.13 C 7.22,29.48 0,36.7 0,45.61 v 204.24 c 0,8.91 7.22,16.13 16.13,16.13 h 236.46 c 8.91,0 16.13,-7.22 16.13,-16.13 V 45.61 c 0,-8.91 -7.22,-16.13 -16.13,-16.13 z m -40.31,10.74 c 5.94,0 10.74,4.79 10.74,10.74 0,5.94 -4.8,10.73 -10.74,10.73 -5.94,0 -10.74,-4.79 -10.74,-10.73 0,-5.95 4.85,-10.74 10.74,-10.74 z m -29.57,0 c 5.95,0 10.74,4.79 10.74,10.74 0,5.94 -4.84,10.73 -10.74,10.73 -5.94,0 -10.74,-4.79 -10.74,-10.73 0,-5.95 4.85,-10.74 10.74,-10.74 z M 87.79,249.8 c 3.84,-22.25 23.22,-39.26 46.57,-39.26 23.36,0 42.73,16.96 46.57,39.26 z m 164.8,-6.08 c 0,-5.21 -4.25,-9.37 -9.46,-9.37 h -17.18 c -2.24,-8.59 -5.71,-16.9 -10.15,-24.4 l 12.2,-12.2 c 3.71,-3.7 3.71,-9.69 0,-13.39 l -20.06,-20.11 c -3.7,-3.7 -9.69,-3.7 -13.39,0 l -12.25,12.2 c -7.54,-4.43 -15.81,-7.91 -24.4,-10.14 v -17.19 c 0,-5.21 -4.11,-9.46 -9.37,-9.46 h -28.34 c -5.21,0 -9.32,4.25 -9.32,9.46 v 17.19 c -8.59,2.23 -16.91,5.71 -24.4,10.14 l -12.21,-12.2 c -3.7,-3.7 -9.68,-3.7 -13.39,0 l -20.06,20.06 c -3.7,3.7 -3.7,9.69 0,13.39 l 12.2,12.25 c -4.43,7.54 -7.9,15.81 -10.14,24.4 H 25.59 c -5.21,0 -9.46,4.12 -9.46,9.37 V 72.48 H 252.59 Z M 241.85,61.69 c -5.94,0 -10.74,-4.79 -10.74,-10.73 0,-5.95 4.85,-10.74 10.74,-10.74 5.94,0 10.74,4.79 10.74,10.74 0,5.94 -4.8,10.73 -10.74,10.73 z"
   class="st1"
   id="path10"
   inkscape:connector-curvature="0"
   style="fill:#2a2a2a;stroke:none;stroke-width:0.61199999;stroke-linecap:butt" />
			</g>
		</g>
	</g>
</svg>

<?xml version="1.0" encoding="UTF-8" standalone="no"?>
<!DOCTYPE svg PUBLIC "-//W3C//DTD SVG 1.1//EN" "http://www.w3.org/Graphics/SVG/1.1/DTD/svg11.dtd">
<!-- 由 Microsoft Visio, SVG Export 生成 display.svg 页-1 -->
<svg xmlns="http://www.w3.org/2000/svg" xmlns:xlink="http://www.w3.org/1999/xlink" xmlns:ev="http://www.w3.org/2001/xml-events"
		xmlns:v="http://schemas.microsoft.com/visio/2003/SVGExtensions/" width="5.33333in" height="3.69417in"
		viewBox="0 0 384 265.98" xml:space="preserve" color-interpolation-filters="sRGB" class="st2">
	<v:documentProperties v:langID="2052" v:viewMarkup="false"/>

	<style type="text/css">
	<![CDATA[
		.st1 {fill:#2a2a2a;stroke:none;stroke-linecap:butt;stroke-width:0.612}
		.st2 {fill:none;fill-rule:evenodd;font-size:12px;overflow:visible;stroke-linecap:square;stroke-miterlimit:3}
	]]>
	</style>

	<g v:mID="0" v:index="1" v:groupContext="foregroundPage">
		<title>页-1</title>
		<v:pageProperties v:drawingScale="0.0393701" v:pageScale="0.0393701" v:drawingUnits="24" v:shadowOffsetX="9"
				v:shadowOffsetY="-9"/>
		<g id="group283-1" v:mID="283" v:groupContext="group">
			<title>工作表.283</title>
			<g id="shape488-2" v:mID="488" v:groupContext="shape" transform="translate(57.424,-14.7521)">
				<title>工作表.488</title>
				<path d="M252.59 29.48 L16.13 29.48 C7.22 29.48 0 36.7 0 45.61 L0 249.85 C0 258.76 7.22 265.98 16.13 265.98 L252.59
							 265.98 C261.5 265.98 268.72 258.76 268.72 249.85 L268.72 45.61 C268.72 36.7 261.5 29.48 252.59 29.48
							 ZM212.28 40.22 C218.22 40.22 223.02 45.01 223.02 50.96 C223.02 56.9 218.22 61.69 212.28 61.69 C206.34
							 61.69 201.54 56.9 201.54 50.96 C201.54 45.01 206.39 40.22 212.28 40.22 ZM182.71 40.22 C188.66 40.22
							 193.45 45.01 193.45 50.96 C193.45 56.9 188.61 61.69 182.71 61.69 C176.77 61.69 171.97 56.9 171.97 50.96
							 C171.97 45.01 176.82 40.22 182.71 40.22 ZM87.79 249.8 C91.63 227.55 111.01 210.54 134.36 210.54 C157.72
							 210.54 177.09 227.5 180.93 249.8 L87.79 249.8 ZM252.59 243.72 C252.59 238.51 248.34 234.35 243.13 234.35
							 L225.95 234.35 C223.71 225.76 220.24 217.45 215.8 209.95 L228 197.75 C231.71 194.05 231.71 188.06 228
							 184.36 L207.94 164.25 C204.24 160.55 198.25 160.55 194.55 164.25 L182.3 176.45 C174.76 172.02 166.49
							 168.54 157.9 166.31 L157.9 149.12 C157.9 143.91 153.79 139.66 148.53 139.66 L120.19 139.66 C114.98 139.66
							 110.87 143.91 110.87 149.12 L110.87 166.31 C102.28 168.54 93.96 172.02 86.47 176.45 L74.26 164.25 C70.56
							 160.55 64.58 160.55 60.87 164.25 L40.81 184.31 C37.11 188.01 37.11 194 40.81 197.7 L53.01 209.95 C48.58
							 217.49 45.11 225.76 42.87 234.35 L25.59 234.35 C20.38 234.35 16.13 238.47 16.13 243.72 L16.13 72.48
							 L252.59 72.48 L252.59 243.72 ZM241.85 61.69 C235.91 61.69 231.11 56.9 231.11 50.96 C231.11 45.01 235.96
							 40.22 241.85 40.22 C247.79 40.22 252.59 45.01 252.59 50.96 C252.59 56.9 247.79 61.69 241.85 61.69 Z"
						class="st1"/>
			</g>
		</g>
	</g>
</svg>
